svgs/sharp-solid/truck-field.svg

<svg xmlns="http://www.w3.org/2000/svg" viewBox="0 0 640 512"><!--! Font Awesome Pro 6.6.0 by @fontawesome - https://fontawesome.com License - https://fontawesome.com/license (Commercial License) Copyright 2024 Fonticons, Inc. --><path d="M32 32l352 0 0 32 64 0 20.8 0 8.4 19 62.7 141 68.1 0 0 96 32 0 0 64-32 0-32 0c0 53-43 96-96 96s-96-43-96-96l-128 0c0 53-43 96-96 96s-96-43-96-96l-32 0L0 384l0-64 32 0 0-32L0 288 0 128l32 0 0-96zM384 224l85.9 0-42.7-96L384 128l0 96zM112 384a48 48 0 1 0 96 0 48 48 0 1 0 -96 0zm416 0a48 48 0 1 0 -96 0 48 48 0 1 0 96 0z"/></svg>

<svg xmlns="http://www.w3.org/2000/svg" viewBox="0 0 640 512"><!--! Font Awesome Pro 6.4.0 by @fontawesome - https://fontawesome.com License - https://fontawesome.com/license (Commercial License) Copyright 2023 Fonticons, Inc. --><path d="M32 32H384V64h64 20.8l8.4 19 62.7 141H608v96h32v64H608 576c0 53-43 96-96 96s-96-43-96-96H256c0 53-43 96-96 96s-96-43-96-96H32 0V320H32V288H0V128H32V32zM384 224h85.9l-42.7-96H384v96zM112 384a48 48 0 1 0 96 0 48 48 0 1 0 -96 0zm416 0a48 48 0 1 0 -96 0 48 48 0 1 0 96 0z"/></svg>
